svg/part/head_line.svg

<?xml version="1.0" encoding="UTF-8"?>
<svg width="24px" height="24px" viewBox="0 0 24 24" version="1.1" xmlns="http://www.w3.org/2000/svg" xmlns:xlink="http://www.w3.org/1999/xlink">
    <title>head_line</title>
    <g id="Icon" stroke="none" stroke-width="1" fill="none" fill-rule="evenodd">
        <g id="Part" transform="translate(-96.000000, -192.000000)">
            <g id="head_line" transform="translate(96.000000, 192.000000)">
                <path d="M24,0 L24,24 L0,24 L0,0 L24,0 Z M12.5935,23.2578 L12.5819,23.2595 L12.5109,23.295 L12.4919,23.2987 L12.4767,23.295 L12.4057,23.2595 C12.3958,23.2564 12.387,23.259 12.3821,23.2649 L12.378,23.2758 L12.3609,23.7031 L12.3659,23.7235 L12.3769,23.7357 L12.4805,23.8097 L12.4953,23.8136 L12.5071,23.8097 L12.6107,23.7357 L12.6233,23.7197 L12.6267,23.7031 L12.6096,23.2758 C12.6076,23.2657 12.601,23.2593 12.5935,23.2578 Z M12.8584,23.1453 L12.8445,23.1473 L12.6598,23.2397 L12.6499,23.2499 L12.6472,23.2611 L12.6651,23.6906 L12.6699,23.7034 L12.6784,23.7105 L12.8793,23.8032 C12.8914,23.8069 12.9022,23.803 12.9078,23.7952 L12.9118,23.7812 L12.8777,23.1665 C12.8753,23.1546 12.8674,23.147 12.8584,23.1453 Z M12.143,23.1473 C12.1332,23.1424 12.1222,23.1453 12.1156,23.1526 L12.1099,23.1665 L12.0758,23.7812 C12.0751,23.7927 12.0828,23.8019 12.0926,23.8046 L12.1083,23.8032 L12.3092,23.7105 L12.3186,23.7024 L12.3225,23.6906 L12.3404,23.2611 L12.3372,23.2485 L12.3278,23.2397 L12.143,23.1473 Z" id="MingCute" fill-rule="nonzero"></path>
                <path d="M5.00005,10 C5.00005,5.58172 8.58177,2 13.0001,2 C17.4183,2 21.0001,5.58172 21.0001,10 C21.0001,12.5272 19.8273,14.7807 18.0001,16.2453 L18.0001,20.5 C18.0001,21.3284 17.3285,22 16.5001,22 L11.5001,22 C10.6716,22 10.0001,21.3284 10.0001,20.5 L10.0001,19 L8.76561,19 C7.25265,19 5.97644,17.8734 5.78878,16.3721 L5.64846,15.2495 L4.90196,15.1002 C3.97377,14.9145 3.44747,13.9262 3.81153,13.0524 L5.00237,10.1944 C5.00083,10.1298 5.00005,10.065 5.00005,10 Z M13.0001,4 C9.68634,4 7.00005,6.68629 7.00005,10 C7.00005,10.0756 7.00144,10.1508 7.0042,10.2256 C7.01197,10.4365 6.97675,10.6559 6.88928,10.8658 L5.89226,13.2587 L6.39408,13.359 C7.02719,13.4857 7.50823,14.0032 7.58831,14.6438 L7.77334,16.124 C7.83589,16.6245 8.26129,17 8.76561,17 L10.5001,17 C11.3285,17 12.0001,17.6716 12.0001,18.5 L12.0001,20 L16.0001,20 L16.0001,16.0062 C16.0001,15.509 16.2444,15.0688 16.609,14.7937 C18.0632,13.697 19.0001,11.9581 19.0001,10 C19.0001,6.68629 16.3138,4 13.0001,4 Z" id="形状" fill="#09244B"></path>
            </g>
        </g>
    </g>
</svg>

<svg xmlns="http://www.w3.org/2000/svg" width="24" height="24"><g fill="none" fill-rule="evenodd"><path d="M24 0v24H0V0h24ZM12.594 23.258l-.012.002-.071.035-.02.004-.014-.004-.071-.036c-.01-.003-.019 0-.024.006l-.004.01-.017.428.005.02.01.013.104.074.015.004.012-.004.104-.074.012-.016.004-.017-.017-.427c-.002-.01-.009-.017-.016-.018Zm.264-.113-.014.002-.184.093-.01.01-.003.011.018.43.005.012.008.008.201.092c.012.004.023 0 .029-.008l.004-.014-.034-.614c-.003-.012-.01-.02-.02-.022Zm-.715.002a.023.023 0 0 0-.027.006l-.006.014-.034.614c0 .012.007.02.017.024l.015-.002.201-.093.01-.008.003-.011.018-.43-.003-.012-.01-.01-.184-.092Z"/><path fill="#09244B" d="M5 10a8 8 0 1 1 13 6.245V20.5a1.5 1.5 0 0 1-1.5 1.5h-5a1.5 1.5 0 0 1-1.5-1.5V19H8.766a3 3 0 0 1-2.977-2.628l-.14-1.123-.747-.149a1.5 1.5 0 0 1-1.09-2.048l1.19-2.858A8.157 8.157 0 0 1 5 10Zm8-6a6 6 0 0 0-5.996 6.226c.008.21-.027.43-.115.64l-.997 2.393.502.1a1.5 1.5 0 0 1 1.194 1.285l.185 1.48a1 1 0 0 0 .993.876H10.5a1.5 1.5 0 0 1 1.5 1.5V20h4v-3.994c0-.497.244-.937.609-1.212A6 6 0 0 0 13 4Z"/></g></svg>
